src/assets/icons/phone.svg

<svg viewBox="0 0 32 32" xmlns="http://www.w3.org/2000/svg">
  <path
    fill-rule="evenodd"
    clip-rule="evenodd"
    d="M31.8799 26.9C31.8799 26.9 28.7799 30.3 26.2799 30.5C23.7799 30.7 17.0799 27.3 11.5799 21.8C6.07994 16.3 2.57994 10.4 2.87994 7.1C3.17994 3.8 6.47994 1.5 6.47994 1.5L13.5799 8.6L10.7799 11.4L21.9799 22.6L24.7799 19.8L31.8799 26.9Z" />
</svg>

<svg viewBox="0 0 32 32" xmlns="http://www.w3.org/2000/svg">
  <path fill-rule="evenodd" clip-rule="evenodd" d="M31.88 26.9s-3.1 3.4-5.6 3.6c-2.5.2-9.2-3.2-14.7-8.7-5.5-5.5-9-11.4-8.7-14.7.3-3.3 3.6-5.6 3.6-5.6l7.1 7.1-2.8 2.8 11.2 11.2 2.8-2.8 7.1 7.1Z"/>
</svg>
